X: 573
T: Queen of Harts
%R: reel
Z: 2018 John Chambers <jc:trillian.mit.edu>
B: John Treat - "Gamut for the Fifes", 1779, p.57 #3
F: https://archive.org/details/GamutFortheFifes
N: There are many notes missing at both bottom page corners. We could make guesses ...
M: 2/4
L: 1/16
K: G
% - - - - - - - - - - - - - - - - - - - - - - - - -
|:\
Bce2 e4 | dcBc ded2 |\
cBce e4 | dcBc ded2 |\
cBce "?"z4 | "?"z8 |\
BdBG AcAF | G2GG G4 :|
|:\
g2fd d4 | efg2 dBG2 |\
gfd2 d4 | fga2 a4 |\
gfd2 d4 | efg2 dBG2 |\
BdBG cAF"?"z | "?"z8 :|
% - - - - - - - - - - - - - - - - - - - - - - - - -
